X:2623
T:Holzaktion Reinländer - schottisch/schottische/scottish
O:england
C:Anton Gaisberger
S:Oberoesterreichisches Volksliedwerk OÖVLA MVIII 9
A:Gilgenberg
N:please mail errors to: simon.wascher@chello.at
M:2/4
L:1/16
K:G
D2|GFGA cBcd|e2d2 d3B|d2c2 c3A|c2B2 B3D|
GFGA cBcd|e2d2 d3B|d2c2 c2BA|G2B2G2:|
|:g2|g2dd eed2|g2dd eed2|g2gg gfed|f2e2e4|
a2ee ffe2|a2ee ffe2|agfe dcBA|B2B2B2:|
|:GG|edcB dcBA|G4E2GG|F4D2AA|G4E2GG|
edcB dcBA|G4E2GG|B2B2 B2AB|c2c2c2:|


